X:69
T:Blackett o' Wylam
Z:Jack Campin, http://www.campin.me.uk/
S:Northumbrian Minstrelsy
M:6/8
L:1/8
K:G
B/c/|ded d2c|Bgd B2 \
c   |ded d2c|BgB A2:|
e/f/|gfe dBG|Bgd B2 \
e/f/|gfe dBG|BgB A2:|

